packages/web-icons/svgs/radio_checked.svg

<svg viewBox="0 0 48 48" xmlns="http://www.w3.org/2000/svg" class="ridi_icon"><path d="M24 0C10.7 0 0 10.7 0 24s10.7 24 24 24 24-10.7 24-24S37.3 0 24 0zm0 42c-9.9 0-18-8.1-18-18S14.1 6 24 6s18 8.1 18 18-8.1 18-18 18zm-9-18c0 5 4 9 9 9s9-4 9-9-4-9-9-9-9 4-9 9z"/></svg>

<?xml version="1.0" encoding="UTF-8"?>
<svg width="48px" height="48px" viewBox="0 0 48 48" version="1.1" xmlns="http://www.w3.org/2000/svg">
  <!-- Generator: Sketch 41.2 (35397) - http://www.bohemiancoding.com/sketch -->
  <title>radio_checked</title>
  <desc>Created with Sketch.</desc>
  <defs></defs>
  <g id="Page-1" stroke="none" stroke-width="1" fill="none" fill-rule="evenodd">
    <g id="radio_checked" fill="#000000">
      <g id="레이어_1">
        <path d="M24,0 C10.7,0 0,10.7 0,24 C0,37.3 10.7,48 24,48 C37.3,48 48,37.3 48,24 C48,10.7 37.3,0 24,0 Z M24,42 C14.1,42 6,33.9 6,24 C6,14.1 14.1,6 24,6 C33.9,6 42,14.1 42,24 C42,33.9 33.9,42 24,42 Z M15,24 C15,29 19,33 24,33 C29,33 33,29 33,24 C33,19 29,15 24,15 C19,15 15,19 15,24 Z" id="Shape"></path>
      </g>
    </g>
  </g>
</svg>
